humanity-icon-theme/Humanity/apps/16/preferences-desktop-theme.svg

<?xml version="1.0" encoding="UTF-8" standalone="no"?>
<!-- Created with Inkscape (http://www.inkscape.org/) -->
<svg
   xmlns:svg="http://www.w3.org/2000/svg"
   xmlns="http://www.w3.org/2000/svg"
   xmlns:xlink="http://www.w3.org/1999/xlink"
   version="1.0"
   width="16"
   height="16"
   id="svg3406">
  <defs
     id="defs3408">
    <linearGradient
       x1="16.000452"
       y1="14.018244"
       x2="16.000452"
       y2="2.0003529"
       id="linearGradient3396"
       xlink:href="#linearGradient3420"
       gradientUnits="userSpaceOnUse" />
    <linearGradient
       x1="20.483017"
       y1="13.94356"
       x2="20.483017"
       y2="41.782825"
       id="linearGradient4167"
       xlink:href="#linearGradient3839"
       gradientUnits="userSpaceOnUse"
       gradientTransform="matrix(0.4380726,0,0,0.4315588,3.0269513,-4.0174664)" />
    <radialGradient
       cx="4"
       cy="14.136362"
       r="5.0000019"
       fx="4"
       fy="14.136362"
       id="radialGradient4164"
       xlink:href="#linearGradient6823"
       gradientUnits="userSpaceOnUse"
       gradientTransform="matrix(1.0664507,1.3783113e-7,-1.588112e-7,1.2597972,2.6805482,-11.158733)" />
    <linearGradient
       id="linearGradient3420">
      <stop
         id="stop3422"
         style="stop-color:#753400;stop-opacity:1"
         offset="0" />
      <stop
         id="stop3424"
         style="stop-color:#ee6a00;stop-opacity:1"
         offset="1" />
    </linearGradient>
    <linearGradient
       x1="12.526104"
       y1="5.300127"
       x2="12.526104"
       y2="-0.038327597"
       id="linearGradient3404"
       xlink:href="#linearGradient3420"
       gradientUnits="userSpaceOnUse" />
    <linearGradient
       id="linearGradient3839">
      <stop
         id="stop3841"
         style="stop-color:#ffed8c;stop-opacity:1"
         offset="0" />
      <stop
         id="stop3843"
         style="stop-color:#fb9858;stop-opacity:1"
         offset="0.26238" />
      <stop
         id="stop3845"
         style="stop-color:#dc572a;stop-opacity:1"
         offset="0.66093999" />
      <stop
         id="stop3847"
         style="stop-color:#9f3110;stop-opacity:1"
         offset="1" />
    </linearGradient>
    <radialGradient
       cx="27.8486"
       cy="4.607163"
       r="7.4889512"
       fx="27.8486"
       fy="4.607163"
       id="radialGradient4159"
       xlink:href="#linearGradient3839"
       gradientUnits="userSpaceOnUse"
       gradientTransform="matrix(0.8247935,0,0,0.5586331,-13.839225,-1.4335704)" />
    <linearGradient
       id="linearGradient3429">
      <stop
         id="stop3431"
         style="stop-color:#be5400;stop-opacity:1"
         offset="0" />
      <stop
         id="stop3433"
         style="stop-color:#823900;stop-opacity:1"
         offset="1" />
    </linearGradient>
    <radialGradient
       cx="30.974438"
       cy="12.172572"
       r="4.890574"
       fx="30.974438"
       fy="12.172572"
       id="radialGradient4156"
       xlink:href="#linearGradient3429"
       gradientUnits="userSpaceOnUse"
       gradientTransform="matrix(0.6525525,0,0,0.4359566,-9.712006,-2.3067163)" />
    <linearGradient
       x1="17.061718"
       y1="28.909391"
       x2="14.986086"
       y2="20.41398"
       id="linearGradient4197"
       xlink:href="#linearGradient3568-0"
       gradientUnits="userSpaceOnUse"
       gradientTransform="matrix(0.4380726,0,0,0.4315588,-1.9730487,-2.0174664)" />
    <linearGradient
       id="linearGradient6823">
      <stop
         id="stop6825"
         style="stop-color:#ffffff;stop-opacity:1"
         offset="0" />
      <stop
         id="stop6827"
         style="stop-color:#ffffff;stop-opacity:0"
         offset="1" />
    </linearGradient>
    <radialGradient
       cx="4"
       cy="14.136362"
       r="5.0000019"
       fx="4"
       fy="14.136362"
       id="radialGradient4194"
       xlink:href="#linearGradient6823"
       gradientUnits="userSpaceOnUse"
       gradientTransform="matrix(1.0664507,1.3783113e-7,-1.588112e-7,1.2597972,-2.3194518,-9.1587334)" />
    <linearGradient
       x1="38.492046"
       y1="28.943525"
       x2="38.492046"
       y2="20.347626"
       id="linearGradient4191"
       xlink:href="#linearGradient4639-6"
       gradientUnits="userSpaceOnUse"
       gradientTransform="matrix(0.33346,0,0,0.4169546,-7.3346637,-1.3201236)" />
    <linearGradient
       id="linearGradient4639-6">
      <stop
         id="stop4641-2"
         style="stop-color:#555753;stop-opacity:1"
         offset="0" />
      <stop
         id="stop4643-6"
         style="stop-color:#7c7f79;stop-opacity:1"
         offset="1" />
    </linearGradient>
    <radialGradient
       cx="18.163805"
       cy="22.429104"
       r="2.8422911"
       fx="18.163805"
       fy="22.429104"
       id="radialGradient4188"
       xlink:href="#linearGradient4639-6"
       gradientUnits="userSpaceOnUse"
       gradientTransform="matrix(0.795907,0,0,0.8243049,-8.9567025,-12.350637)" />
    <linearGradient
       id="linearGradient3568-0">
      <stop
         id="stop3570-0"
         style="stop-color:#d6d6d6;stop-opacity:1"
         offset="0" />
      <stop
         id="stop3572-4"
         style="stop-color:#f0f0f0;stop-opacity:1"
         offset="1" />
    </linearGradient>
    <radialGradient
       cx="27.8486"
       cy="4.607163"
       r="7.4889512"
       fx="27.8486"
       fy="4.607163"
       id="radialGradient4185"
       xlink:href="#linearGradient3568-0"
       gradientUnits="userSpaceOnUse"
       gradientTransform="matrix(0.4305182,0,0,0.2915902,-7.8592102,1.7967395)" />
    <linearGradient
       id="linearGradient3550">
      <stop
         id="stop3552"
         style="stop-color:#6f6f6f;stop-opacity:1"
         offset="0" />
      <stop
         id="stop3554"
         style="stop-color:#969696;stop-opacity:1"
         offset="1" />
    </linearGradient>
    <radialGradient
       cx="30.974438"
       cy="12.172572"
       r="4.890574"
       fx="30.974438"
       fy="12.172572"
       id="radialGradient4182"
       xlink:href="#linearGradient3550"
       gradientUnits="userSpaceOnUse"
       gradientTransform="matrix(0.6525525,0,0,0.4359566,-14.712006,-0.3067162)" />
  </defs>
  <g
     id="layer1">
    <path
       d="M 9.6890288,2.5075028 L 11.310971,2.5075028 C 13.188757,2.5075028 15.493303,3.0760861 15.493303,3.308546 L 15.493303,13.073608 C 15.493303,13.306068 15.301927,13.493203 15.064187,13.493203 L 5.9358125,13.493203 C 5.6980637,13.493203 5.5066971,13.306068 5.5066971,13.073608 L 5.5066971,3.308546 C 5.5066971,3.0760861 7.7722624,2.5075028 9.6890288,2.5075028 L 9.6890288,2.5075028 z"
       id="path3359"
       style="fill:url(#linearGradient4167);fill-opacity:1;fill-rule:evenodd;stroke:url(#linearGradient3396);stroke-width:1.01429987;stroke-linecap:butt;stroke-linejoin:miter;marker:none;stroke-miterlimit:4;stroke-dasharray:none;stroke-dashoffset:0;stroke-opacity:1;visibility:visible;display:inline;overflow:visible;enable-background:new" />
    <path
       d="M 9.8515222,3.5072467 L 11.14846,3.5072467 C 12.649997,3.5072467 14.492753,4.0867717 14.492753,4.0867717 L 14.492753,12.492753 C 14.492753,12.492753 6.5072469,12.492753 6.5072469,12.492753 L 6.5072469,4.0867717 C 6.5072469,4.0867717 8.3188453,3.5072467 9.8515222,3.5072467 L 9.8515222,3.5072467 z"
       id="path3361"
       style="opacity:0.26315792;fill:none;stroke:url(#radialGradient4164);stroke-width:1.0144937;stroke-linecap:butt;stroke-linejoin:round;marker:none;stroke-miterlimit:4;stroke-dasharray:none;stroke-dashoffset:0;stroke-opacity:1;visibility:visible;display:inline;overflow:visible;enable-background:new" />
    <path
       d="M 10.485535,3.5016627 C 10.485535,3.5016627 9.5016629,5.5585684 9.5016629,6.3407173 L 9.5016629,11.793 L 10.543409,12.998 L 11.498337,11.793 L 11.498337,6.2669745 C 11.498337,5.5369652 10.485535,3.5016627 10.485535,3.5016627 L 10.485535,3.5016627 z"
       id="path3363"
       style="fill:none;fill-opacity:1;fill-rule:evenodd;stroke:#98308d;stroke-width:1.0033257;stroke-linecap:butt;stroke-linejoin:miter;marker:none;stroke-miterlimit:4;stroke-dasharray:none;stroke-dashoffset:0;stroke-opacity:1;visibility:visible;display:inline;overflow:visible;enable-background:new" />
    <path
       d="M 11.496395,4.4999997 C 11.496556,5.0502466 11.050407,5.4963952 10.5,5.4963952 C 9.9495919,5.4963952 9.5034439,5.0502466 9.5036046,4.4999997 C 9.5034439,3.949753 9.9495919,3.5036044 10.5,3.5036044 C 11.050407,3.5036044 11.496556,3.949753 11.496395,4.4999997 L 11.496395,4.4999997 L 11.496395,4.4999997 z"
       id="path3365"
       style="fill:#d67ecc;fill-opacity:1;fill-rule:evenodd;stroke:#98308d;stroke-width:1.00720918;stroke-linecap:butt;stroke-linejoin:miter;marker:none;stroke-miterlimit:4;stroke-dasharray:none;stroke-dashoffset:0;stroke-opacity:1;visibility:visible;display:inline;overflow:visible;enable-background:new" />
    <path
       d="M 10.459247,3.48 L 8.2902471,4.809 C 8.2902471,4.809 7.4911269,2.5623657 7.4911269,1.6964516 C 7.4911269,0.8310911 8.061938,0.491127 8.6707763,0.491127 C 8.6707763,0.491127 12.28577,0.491127 12.28577,0.491127 C 12.697611,0.491127 13.417869,0.6301971 13.503473,1.6346436 C 13.589094,2.6390821 12.628255,4.809 12.628255,4.809 L 10.459247,3.48 z"
       id="path3367"
       style="fill:url(#radialGradient4159);fill-opacity:1;fill-rule:evenodd;stroke:url(#linearGradient3404);stroke-width:0.98225385;stroke-linecap:butt;stroke-linejoin:miter;marker:none;stroke-miterlimit:4;stroke-dasharray:none;stroke-dashoffset:0;stroke-opacity:1;visibility:visible;display:inline;overflow:visible;enable-background:new" />
    <path
       d="M 9.4728377,1 C 9.3198226,1 8.917125,1.208337 9.0152025,1.708329 C 9.113265,2.2083318 9.2965076,3 9.565,3 L 11.471,3 C 11.682283,3 11.916301,2.3333295 11.989861,1.833327 C 12.063399,1.333335 11.717935,1 11.564911,1 L 9.4728377,1 z"
       id="path3369"
       style="fill:url(#radialGradient4156);fill-opacity:1;fill-rule:evenodd;stroke:none;stroke-width:1;marker:none;visibility:visible;display:inline;overflow:visible;enable-background:new" />
    <path
       d="M 4.6890288,4.5075028 L 6.310971,4.5075028 C 8.1887567,4.5075028 10.493303,5.0760861 10.493303,5.308546 L 10.493303,15.073608 C 10.493303,15.306068 10.301927,15.493203 10.064187,15.493203 L 0.93581248,15.493203 C 0.69806365,15.493203 0.50669707,15.306068 0.50669707,15.073608 L 0.50669707,5.308546 C 0.50669707,5.0760861 2.7722624,4.5075028 4.6890288,4.5075028 L 4.6890288,4.5075028 z"
       id="path15945"
       style="fill:url(#linearGradient4197);fill-opacity:1;fill-rule:evenodd;stroke:#949494;stroke-width:1.01429987;stroke-linecap:butt;stroke-linejoin:miter;marker:none;stroke-miterlimit:4;stroke-dasharray:none;stroke-dashoffset:0;stroke-opacity:1;visibility:visible;display:inline;overflow:visible;enable-background:new" />
    <path
       d="M 4.8515222,5.5072467 L 6.1484601,5.5072467 C 7.6499967,5.5072467 9.4927532,6.0867717 9.4927532,6.0867717 L 9.4927532,14.492753 C 9.4927532,14.492753 1.5072469,14.492753 1.5072469,14.492753 L 1.5072469,6.0867717 C 1.5072469,6.0867717 3.3188453,5.5072467 4.8515222,5.5072467 L 4.8515222,5.5072467 z"
       id="path15947"
       style="opacity:0.26315792;fill:none;stroke:url(#radialGradient4194);stroke-width:1.0144937;stroke-linecap:butt;stroke-linejoin:round;marker:none;stroke-miterlimit:4;stroke-dasharray:none;stroke-dashoffset:0;stroke-opacity:1;visibility:visible;display:inline;overflow:visible;enable-background:new" />
    <path
       d="M 5.4855347,5.5016627 C 5.4855347,5.5016627 4.5016629,7.5585684 4.5016629,8.3407173 L 4.5016629,13.793 L 5.5434092,14.998 L 6.4983372,13.793 L 6.4983372,8.2669745 C 6.4983372,7.5369652 5.4855347,5.5016627 5.4855347,5.5016627 L 5.4855347,5.5016627 z"
       id="path15949"
       style="fill:url(#linearGradient4191);fill-opacity:1;fill-rule:evenodd;stroke:#414141;stroke-width:1.0033257;stroke-linecap:butt;stroke-linejoin:miter;marker:none;stroke-miterlimit:4;stroke-dasharray:none;stroke-dashoffset:0;stroke-opacity:1;visibility:visible;display:inline;overflow:visible;enable-background:new" />
    <path
       d="M 6.4963954,6.4999997 C 6.496556,7.0502466 6.0504072,7.4963952 5.5,7.4963952 C 4.9495919,7.4963952 4.5034439,7.0502466 4.5036046,6.4999997 C 4.5034439,5.949753 4.9495919,5.5036044 5.5,5.5036044 C 6.0504072,5.5036044 6.496556,5.949753 6.4963954,6.4999997 L 6.4963954,6.4999997 L 6.4963954,6.4999997 z"
       id="path15951"
       style="fill:url(#radialGradient4188);fill-opacity:1;fill-rule:evenodd;stroke:#414141;stroke-width:1.00720918;stroke-linecap:butt;stroke-linejoin:miter;marker:none;stroke-miterlimit:4;stroke-dasharray:none;stroke-dashoffset:0;stroke-opacity:1;visibility:visible;display:inline;overflow:visible;enable-background:new" />
    <path
       d="M 5.4592469,5.48 L 3.2902471,6.809 C 3.2902471,6.809 2.4911269,4.5623657 2.4911269,3.6964516 C 2.4911269,2.8310911 3.061938,2.491127 3.6707763,2.491127 C 3.6707763,2.491127 7.2857704,2.491127 7.2857704,2.491127 C 7.6976111,2.491127 8.4178687,2.6301971 8.5034727,3.6346436 C 8.589094,4.6390821 7.6282554,6.809 7.6282554,6.809 L 5.4592469,5.48 z"
       id="path15953"
       style="fill:url(#radialGradient4185);fill-opacity:1;fill-rule:evenodd;stroke:#949494;stroke-width:0.98225385;stroke-linecap:butt;stroke-linejoin:miter;marker:none;stroke-miterlimit:4;stroke-dasharray:none;stroke-dashoffset:0;stroke-opacity:1;visibility:visible;display:inline;overflow:visible;enable-background:new" />
    <path
       d="M 4.4728377,3 C 4.3198227,3 3.917125,3.208337 4.0152025,3.708329 C 4.113265,4.2083317 4.1965073,5 4.465,5 L 6.571,5 C 6.7822826,5 6.9163013,4.3333295 6.9898614,3.833327 C 7.0633992,3.333335 6.7179337,3 6.5649112,3 L 4.4728377,3 z"
       id="path15955"
       style="fill:url(#radialGradient4182);fill-opacity:1;fill-rule:evenodd;stroke:none;stroke-width:1;marker:none;visibility:visible;display:inline;overflow:visible;enable-background:new" />
  </g>
</svg>

<?xml version="1.0" encoding="UTF-8" standalone="no"?>
<!-- Created with Inkscape (http://www.inkscape.org/) -->
<svg id="svg3406" xmlns="http://www.w3.org/2000/svg" height="16" width="16" version="1.0" xmlns:xlink="http://www.w3.org/1999/xlink">
 <defs id="defs3408">
  <linearGradient id="linearGradient3396" y2="2.0004" xlink:href="#linearGradient3420" gradientUnits="userSpaceOnUse" x2="16" y1="14.018" x1="16"/>
  <linearGradient id="linearGradient4167" y2="41.783" xlink:href="#linearGradient3839" gradientUnits="userSpaceOnUse" x2="20.483" gradientTransform="matrix(.43807 0 0 .43156 3.027 -4.0175)" y1="13.944" x1="20.483"/>
  <radialGradient id="radialGradient4164" xlink:href="#linearGradient6823" gradientUnits="userSpaceOnUse" cy="14.136" cx="4" gradientTransform="matrix(1.0665 1.3783e-7 -1.5881e-7 1.2598 2.6805 -11.159)" r="5"/>
  <linearGradient id="linearGradient3420">
   <stop id="stop3422" style="stop-color:#753400" offset="0"/>
   <stop id="stop3424" style="stop-color:#ee6a00" offset="1"/>
  </linearGradient>
  <linearGradient id="linearGradient3404" y2="-.038328" xlink:href="#linearGradient3420" gradientUnits="userSpaceOnUse" x2="12.526" y1="5.3001" x1="12.526"/>
  <linearGradient id="linearGradient3839">
   <stop id="stop3841" style="stop-color:#ffed8c" offset="0"/>
   <stop id="stop3843" style="stop-color:#fb9858" offset=".26238"/>
   <stop id="stop3845" style="stop-color:#dc572a" offset=".66094"/>
   <stop id="stop3847" style="stop-color:#9f3110" offset="1"/>
  </linearGradient>
  <radialGradient id="radialGradient4159" xlink:href="#linearGradient3839" gradientUnits="userSpaceOnUse" cy="4.6072" cx="27.849" gradientTransform="matrix(.82479 0 0 .55863 -13.839 -1.4336)" r="7.489"/>
  <radialGradient id="radialGradient4156" gradientUnits="userSpaceOnUse" cy="12.173" cx="30.974" gradientTransform="matrix(.65255 0 0 .43596 -9.712 -2.3067)" r="4.8906">
   <stop id="stop3431" style="stop-color:#be5400" offset="0"/>
   <stop id="stop3433" style="stop-color:#823900" offset="1"/>
  </radialGradient>
  <linearGradient id="linearGradient4197" y2="20.414" xlink:href="#linearGradient3568-0" gradientUnits="userSpaceOnUse" x2="14.986" gradientTransform="matrix(.43807 0 0 .43156 -1.973 -2.0175)" y1="28.909" x1="17.062"/>
  <linearGradient id="linearGradient6823">
   <stop id="stop6825" style="stop-color:#fff" offset="0"/>
   <stop id="stop6827" style="stop-color:#fff;stop-opacity:0" offset="1"/>
  </linearGradient>
  <radialGradient id="radialGradient4194" xlink:href="#linearGradient6823" gradientUnits="userSpaceOnUse" cy="14.136" cx="4" gradientTransform="matrix(1.0665 1.3783e-7 -1.5881e-7 1.2598 -2.3195 -9.1587)" r="5"/>
  <linearGradient id="linearGradient4191" y2="20.348" xlink:href="#linearGradient4639-6" gradientUnits="userSpaceOnUse" x2="38.492" gradientTransform="matrix(.33346 0 0 .41695 -7.3347 -1.3201)" y1="28.944" x1="38.492"/>
  <linearGradient id="linearGradient4639-6">
   <stop id="stop4641-2" style="stop-color:#555753" offset="0"/>
   <stop id="stop4643-6" style="stop-color:#7c7f79" offset="1"/>
  </linearGradient>
  <radialGradient id="radialGradient4188" xlink:href="#linearGradient4639-6" gradientUnits="userSpaceOnUse" cy="22.429" cx="18.164" gradientTransform="matrix(.79591 0 0 .82430 -8.9567 -12.351)" r="2.8423"/>
  <linearGradient id="linearGradient3568-0">
   <stop id="stop3570-0" style="stop-color:#d6d6d6" offset="0"/>
   <stop id="stop3572-4" style="stop-color:#f0f0f0" offset="1"/>
  </linearGradient>
  <radialGradient id="radialGradient4185" xlink:href="#linearGradient3568-0" gradientUnits="userSpaceOnUse" cy="4.6072" cx="27.849" gradientTransform="matrix(.43052 0 0 .29159 -7.8592 1.7967)" r="7.489"/>
  <radialGradient id="radialGradient4182" gradientUnits="userSpaceOnUse" cy="12.173" cx="30.974" gradientTransform="matrix(.65255 0 0 .43596 -14.712 -.30672)" r="4.8906">
   <stop id="stop3552" style="stop-color:#6f6f6f" offset="0"/>
   <stop id="stop3554" style="stop-color:#969696" offset="1"/>
  </radialGradient>
 </defs>
 <g id="layer1">
  <path id="path3359" style="stroke-width:1.0143;fill-rule:evenodd;stroke:url(#linearGradient3396);enable-background:new;fill:url(#linearGradient4167)" d="m9.689 2.5075h1.622c1.878 0 4.182 0.5686 4.182 0.801v9.7655c0 0.232-0.191 0.419-0.429 0.419h-9.1282c-0.2377 0-0.4291-0.187-0.4291-0.419v-9.7655c0-0.2324 2.2656-0.801 4.1823-0.801z"/>
  <path id="path3361" style="opacity:.26316;stroke-linejoin:round;stroke-width:1.0145;stroke:url(#radialGradient4164);enable-background:new;fill:none" d="m9.8515 3.5072h1.2965c1.502 0 3.345 0.5796 3.345 0.5796v8.4062h-7.9858v-8.4062s1.8116-0.5796 3.3443-0.5796z"/>
  <path id="path3363" style="stroke-width:1.0033;stroke:#98308d;enable-background:new;fill:none" d="m10.486 3.5017s-0.9843 2.0569-0.9843 2.839v5.4523l1.0413 1.205 0.955-1.205v-5.526c0-0.73-1.012-2.7653-1.012-2.7653z"/>
  <path id="path3365" style="stroke-width:1.0072;fill-rule:evenodd;stroke:#98308d;enable-background:new;fill:#d67ecc" d="m11.496 4.5c0.001 0.5502-0.446 0.9964-0.996 0.9964-0.5504 0-0.9966-0.4462-0.9964-0.9964-0.0002-0.5502 0.446-0.9964 0.9964-0.9964 0.55 0 0.997 0.4462 0.996 0.9964z"/>
  <path id="path3367" style="stroke-width:.98225;fill-rule:evenodd;stroke:url(#linearGradient3404);enable-background:new;fill:url(#radialGradient4159)" d="m10.459 3.48l-2.1688 1.329s-0.7991-2.2466-0.7991-3.1125c0-0.86541 0.5708-1.2054 1.1797-1.2054 0 0.00003 3.6152 0.00003 3.6152 0.00003 0.412 0 1.132 0.13907 1.217 1.1435 0.086 1.0045-0.875 3.1744-0.875 3.1744l-2.169-1.329z"/>
  <path id="path3369" style="fill-rule:evenodd;enable-background:new;fill:url(#radialGradient4156)" d="m9.4728 1c-0.153 0-0.5557 0.2083-0.4576 0.7083s0.2813 1.2917 0.5498 1.2917h1.906c0.211 0 0.445-0.6667 0.519-1.1667 0.073-0.5-0.272-0.8333-0.425-0.8333h-2.0922z"/>
  <path id="path15945" style="stroke-width:1.0143;fill-rule:evenodd;stroke:#949494;enable-background:new;fill:url(#linearGradient4197)" d="m4.689 4.5075h1.622c1.8778 0 4.182 0.5686 4.182 0.801v9.7655c0 0.232-0.191 0.419-0.429 0.419h-9.1282c-0.23774 0-0.4291-0.187-0.4291-0.419v-9.7655c0-0.2324 2.2656-0.801 4.1823-0.801z"/>
  <path id="path15947" style="opacity:.26316;stroke-linejoin:round;stroke-width:1.0145;stroke:url(#radialGradient4194);enable-background:new;fill:none" d="m4.8515 5.5072h1.297c1.5015 0 3.3443 0.5796 3.3443 0.5796v8.4062h-7.9856v-8.4062s1.8116-0.5796 3.3443-0.5796z"/>
  <path id="path15949" style="stroke-width:1.0033;fill-rule:evenodd;stroke:#414141;enable-background:new;fill:url(#linearGradient4191)" d="m5.4855 5.5017s-0.9838 2.0569-0.9838 2.839v5.4523l1.0417 1.205 0.9549-1.205v-5.526c0-0.73-1.0128-2.7653-1.0128-2.7653z"/>
  <path id="path15951" style="stroke-width:1.0072;fill-rule:evenodd;stroke:#414141;enable-background:new;fill:url(#radialGradient4188)" d="m6.4964 6.5c0.0002 0.5502-0.446 0.9964-0.9964 0.9964s-0.9966-0.4462-0.9964-0.9964c-0.0002-0.5502 0.446-0.9964 0.9964-0.9964s0.9966 0.4462 0.9964 0.9964z"/>
  <path id="path15953" style="stroke-width:.98225;fill-rule:evenodd;stroke:#949494;enable-background:new;fill:url(#radialGradient4185)" d="m5.4592 5.48l-2.169 1.329s-0.7991-2.2466-0.7991-3.1125c0-0.8654 0.5708-1.2054 1.1797-1.2054h3.615c0.4118 0 1.1321 0.1391 1.2177 1.1435 0.0856 1.0045-0.8752 3.1744-0.8752 3.1744l-2.1691-1.329z"/>
  <path id="path15955" style="fill-rule:evenodd;enable-background:new;fill:url(#radialGradient4182)" d="m4.4728 3c-0.153 0-0.5557 0.2083-0.4576 0.7083s0.1813 1.2917 0.4498 1.2917h2.106c0.2113 0 0.3453-0.6667 0.4189-1.1667 0.0735-0.5-0.272-0.8333-0.425-0.8333h-2.0921z"/>
 </g>
</svg>
